X: 8913
T: Curlews, The
R: jig
M: 6/8
K: Bminor
|:e|fBB FBB|fec a2e|c/d/ed cAA|EAc afe|
fBB FBB|fec a2 f|g2 e f2 e|dB^A B2:|

